!!!!SEGMENT: pl-kk--kk-i-7--077_krener-jan--veni-sponsa-christi.krn
!!!cenid: 16xx:916
!!!COM: Krener, Jan
!!!COM-rismid: pe30105858
!!!CDT: <1630->1669
!!!CNT: Polish
!!!OTL: Veni sponsa Christi
!!!PDT: 1669
!!!AGN: Sacred
!!!SMS-siglum: PL-Kk
!!!SMS-shelfmark: Kk.I.7
!!!SMS-shelfwork: 077 W
!!!SMS-variant:
!!!SMS-altvar:
!!!NIFC-rismid: 300258154
!!!URL-scan: http://repozytorium.nifc.pl/skany/pl-kk-nut--i-7
!!!ONB-nifc: UWAGA: C (skan 0067, s.126-127), A (brak), T(0231, s.124), B(0317, s.120). Następny utwór: Contere Domine
**kern	**text	**kern	**text	**kern	**kern	**text
*part4	*part4	*part3	*part3	*part2	*part1	*part1
*staff4	*staff4	*staff3	*staff3	*staff2	*staff1	*staff1
*I"[BASSVS.]	*	*I"[TENOR.]	*	*I"[ALTVS.]	*I"[CANTVS.]	*
*I'[B]	*	*I'[T]	*	*I'[A]	*I'[S]	*
*clefF4	*	*clefC4	*	*clefC4	*clefC3	*
*k[]	*	*k[]	*	*k[]	*k[]	*
*G:	*	*G:	*	*G:	*G:	*
*M2/1	*	*M2/1	*	*M2/1	*M2/1	*
=1-	=1-	=1-	=1-	=1-	=1-	=1-
!LO:TX:a:t=a 4\nJ.K.	!	!LO:TX:a:t=a 4.G. Kremer.	!	!	!LO:TX:a:t=a 4.\nJ.K.	!
!LO:TX:t=P:problem:kreska pseudotaktowa	!	!	!	!	!LO:TX:t=P:problem:kreska pseudotaktowa	!
00r	.	1d\	Ve-	0ryy	0r	.
!	!	!LO:TX:t=P:problem:kreska pseudotaktowa	!	!	!	!
.	.	1B\	-ni	.	.	.
=2-	=2-	=2-	=2-	=2-	=2-	=2-
*	*	*	*	*	*2\right	*
.	.	1d\	Spon-	0ryy	2d\	Ve-
!	!	!	!	!	!LO:TX:t=P:problem:kreska pseudotaktowa	!
.	.	.	.	.	2B/	-ni
!	!	!LO:TX:t=P:problem:kreska pseudotaktowa	!	!	!	!
.	.	1e\	-ſa	.	2g\	Spon-
!	!	!	!	!	!LO:TX:t=P:problem:kreska pseudotaktowa	!
.	.	.	.	.	2a\	-ſa
=3-	=3-	=3-	=3-	=3-	=3-	=3-
1D\	Ve-	1d\	Chriſ-	0ryy	2f#X\	Chri-
.	.	.	.	.	2f#X\	-ſti
!LO:TX:t=P:problem:kreska pseudotaktowa	!	!LO:TX:t=P:problem:kreska pseudotaktowa	!	!	!	!
1BB/	-ni	1d\	-ti	.	4d\	Chri-
.	.	.	.	.	8e\L	.
!	!	!	!	!	!LO:TX:a:t=P:problem:# above	!
.	.	.	.	.	8f#X\J	.
.	.	.	.	.	1g\	.
=4-	=4-	=4-	=4-	=4-	=4-	=4-
1D\	Spon-	1d\	ac-	0ryy	.	.
!	!	!	!	!	!LO:TX:t=P:problem:kreska pseudotaktowa	!
.	.	.	.	.	2f#X\	.
!LO:TX:t=P:problem:kreska pseudotaktowa	!	!	!	!	!	!
1E\	-ſa	1B\	-ci-	.	4g\	-ſti
.	.	.	.	.	2g\	ac-
!	!	!	!	!	!LO:TX:t=P:problem:kreska pseudotaktowa	!
.	.	.	.	.	4g\	-ci-
=5-	=5-	=5-	=5-	=5-	=5-	=5-
*	*	*lig	*	*	*	*
2C/	Chriſ-	1c\	-pe	0ryy	4.e\	-pe
.	.	.	.	.	8c/	.
!LO:TX:t=P:problem:kreska pseudotaktowa	!	!	!	!	!	!
2C/	-ti	.	.	.	4e\	Co-
.	.	.	.	.	8f\L	-ro-
!	!	!	!	!	!LO:TX:t=P:problem:kreska pseudotaktowa	!
.	.	.	.	.	8g\J	.
!	!	!LO:TX:t=P:problem:kreska pseudotaktowa	!	!	!	!
4r	.	1d\	.	.	4d\	.
2BB/	ac-	.	.	.	8e\L	.
.	.	.	.	.	8f\J	.
!	!	!	!	!	!LO:TX:t=P:problem:kreska pseudotaktowa	!
.	.	.	.	.	2g\	.
!LO:TX:t=P:problem:kreska pseudotaktowa	!	!	!	!	!	!
4BB/	-ci-	.	.	.	.	.
*	*	*Xlig	*	*	*	*
=6-	=6-	=6-	=6-	=6-	=6-	=6-
*	*	*lig	*	*	*	*
4.AA/	-pe	1c\	co-	0ryy	2g\	-nam
8BB/	.	.	.	.	.	.
8C/L	Co-	.	.	.	4r	.
8D/J	.	.	.	.	.	.
!	!	!	!	!	!LO:TX:t=P:problem:kreska pseudotaktowa	!
8E\L	-ro-	.	.	.	4e\	Co-
!LO:TX:t=P:problem:kreska pseudotaktowa	!	!	!	!	!	!
8F\J	.	.	.	.	.	.
4G\	.	1B\	.	.	2.d\	-ro-
4D/	.	.	.	.	.	.
1G\	.	.	.	.	.	.
.	.	.	.	.	8e\L	.
!	!	!	!	!	!LO:SIC:v:t=custos g	!
.	.	.	.	.	8f\J	.
*	*	*Xlig	*	*	*	*
!	!	!	!	!	!LO:PB:g=original	!
=7-	=7-	=7-	=7-	=7-	=7-	=7-
*2\right	*	*lig	*	*	*	*
.	.	1A\	-ro-	0ryy	(2g\	.
!LO:TX:t=P:problem:kreska pseudotaktowa	!	!	!	!	!	!
!LO:TX:a:t=P:problem:# above	!	!	!	!	!LO:TX:t=P:problem:kreska pseudotaktowa	!
2F#X\	.	.	.	.	2a\)	.
4G\	-nam	1G/	.	.	2.d,\	-nem
4GG/	quam	.	.	.	.	.
4BB/	ti-	.	.	.	.	.
!LO:TX:t=P:problem:kreska pseudotaktowa	!	!	!	!	!	!
4BB/	-bi	.	.	.	4d\	quam
*	*	*Xlig	*	*	*	*
=8-	=8-	=8-	=8-	=8-	=8-	=8-
!	!	!LO:TX:t=P:problem:kreska pseudotaktowa	!	!	!	!
4.C/	Do-	1G/	-nam	0ryy	4e\	ti-
.	.	.	.	.	4f\	-bi
8C/	-mi-	.	.	.	.	.
!LO:TX:t=P:problem:kreska pseudotaktowa	!	!	!	!	!	!
!LO:SIC:v:t=custos a	!	!	!	!	!	!
2BB/	-nus	.	.	.	4.g\	Do-
!	!	!	!	!	!LO:TX:t=P:problem:kreska pseudotaktowa	!
.	.	.	.	.	8g\	-mi-
!LO:LB:g=original	!	!	!	!	!	!
!	!	!LO:TX:t=P:problem:kreska pseudotaktowa	!	!	!	!
4r	.	1A\	quam	.	2c/	-n(us)
4AA/	quam	.	.	.	.	.
4D/	ti-	.	.	.	4r	.
!LO:TX:t=P:problem:kreska pseudotaktowa	!	!	!	!	!LO:TX:t=P:problem:kreska pseudotaktowa	!
*	*	*	*	*	*	*ij
4F\	-bi	.	.	.	4d\	quam
=9-	=9-	=9-	=9-	=9-	=9-	=9-
4.A\	Do-	1A\	ti-	0ryy	4e\	ti-
.	.	.	.	.	4e\	-bi
8A\	-mi-	.	.	.	.	.
!LO:TX:t=P:problem:kreska pseudotaktowa	!	!	!	!	!	!
2D/	-n(us)	.	.	.	4.f\	Do-
!	!	!	!	!	!LO:TX:t=P:problem:kreska pseudotaktowa	!
.	.	.	.	.	8f\	-mi-
!	!	!LO:TX:t=P:problem:kreska pseudotaktowa	!	!	!	!
4r	.	1A\	-bi	.	2e\	-n(us)
*	*ij	*	*	*	*	*Xij
4AA/	quam	.	.	.	.	.
4FF/	ti-	.	.	.	4.f\	Do-
!LO:TX:t=P:problem:kreska pseudotaktowa	!	!	!	!	!	!
4AA/	-bi	.	.	.	.	.
!	!	!	!	!	!LO:TX:t=P:problem:kreska pseudotaktowa	!
.	.	.	.	.	8e-X\	.
=10-	=10-	=10-	=10-	=10-	=10-	=10-
*	*	*lig	*	*	*	*
4.BB-X/	Do-	1F/	Do-	0ryy	2.d\	.
8C/	-mi-	.	.	.	.	.
!LO:TX:t=P:problem:kreska pseudotaktowa:między nutą a kropką	!	!	!	!	!	!
2.D/	-n(us)	.	.	.	.	.
!	!	!	!	!	!LO:TX:t=P:problem:kreska pseudotaktowa	!
.	.	.	.	.	4e\	.
.	.	1A\	.	.	4f\	.
4E\	quam	.	.	.	4g\	.
4F\	ti-	.	.	.	4a\	.
8E\L	-bi	.	.	.	8g\L	.
!LO:TX:t=P:problem:kreska pseudotaktowa	!	!	!	!	!LO:TX:t=P:problem:kreska pseudotaktowa	!
8F\J	.	.	.	.	8a\J	.
*	*	*Xlig	*	*	*	*
=11-	=11-	=11-	=11-	=11-	=11-	=11-
2.G\	Do-	1G/	-mi-	0ryy	2.d\	.
4GG/	-mi-	.	.	.	4d\	-mi-
!LO:TX:t=P:problem:kreska pseudotaktowa	!	!LO:TX:t=P:problem:kreska pseudotaktowa	!	!	!	!
!	!	!LO:SIC:v:t=custos a	!	!	!	!
1C/	-n(us)	1G/	-n(us)	.	2e\	-n(us)
*	*Xij	*	*	*	*	*
.	.	.	.	.	4.g\	prae-
!	!	!	!	!	!LO:TX:t=P:problem:kreska pseudotaktowa	!
.	.	.	.	.	8f\	-pa-
=12-	=12-	=12-	=12-	=12-	=12-	=12-
1r	.	1A\	prae-	0ryy	4e\	-ra-
!	!	!	!	!	!LO:SIC:v:t=custos f	!
.	.	.	.	.	4c#X/	-vit
!	!	!	!	!	!LO:LB:g=original	!
.	.	.	.	.	4f\	in
.	.	.	.	.	8e\L	ae-
!	!	!	!	!	!LO:TX:t=P:problem:kreska pseudotaktowa	!
.	.	.	.	.	8d\J	.
2r	.	1A\	-pa-	.	1e\	-ter-
4.A\	prae-	.	.	.	.	.
!LO:TX:t=P:problem:kreska pseudotaktowa	!	!	!	!	!	!
8G\	-pa-	.	.	.	.	.
=13-	=13-	=13-	=13-	=13-	=13-	=13-
4F\	-ra-	1c\	-ra-	0ryy	2f\	-num
4C/	-vit	.	.	.	.	.
!	!	!	!	!	!LO:TX:t=P:problem:kreska pseudotaktowa	!
2.A\	in	.	.	.	2r	.
!	!	!LO:TX:t=P:problem:kreska pseudotaktowa	!	!	!	!
.	.	1B\	-vit	.	2r	.
!LO:TX:a:t=P:problem:# above	!	!	!	!	!	!
8G#X\L	ae-	.	.	.	.	.
8F\J	.	.	.	.	.	.
!LO:TX:t=P:problem:kreska pseudotaktowa	!	!	!	!	!	!
2G#X\	-ter-	.	.	.	4.e\	prae-
!	!	!	!	!	!LO:TX:t=P:problem:kreska pseudotaktowa	!
.	.	.	.	.	8d\	-pa-
=14-	=14-	=14-	=14-	=14-	=14-	=14-
2A\	-n(um)	1A\	in	0ryy	4c/	-ra-
.	.	.	.	.	4A/	-vit
*	*	*	*	*	*	*ij
4.F\	prae-	.	.	.	4.a\	prae-
!LO:TX:t=P:problem:kreska pseudotaktowa	!	!	!	!	!LO:TX:t=P:problem:kreska pseudotaktowa	!
8E\	-pa-	.	.	.	8g\	-pa-
!LO:TX:t=P:problem:kreska pseudotaktowa	!	!	!	!	!	!
!LO:SIC:v:t=custos g	!	!	!	!	!LO:TX:t=P:problem:# above i przed kreską pseudotaktową	!
0D\	-ra-	1B-X\	ae-	.	4f#\	-ra-
.	.	.	.	.	4d\	-vit
*	*	*	*	*	*	*Xij
.	.	.	.	.	2.g\	in
=15-	=15-	=15-	=15-	=15-	=15-	=15-
*	*	*lig	*	*	*	*
.	.	1A\	-ter-	0ryy	.	.
!	!	!	!	!	!LO:TX:a:t=P:problem:# above	!
.	.	.	.	.	8f#X\L	ae-
.	.	.	.	.	8e\J	.
!	!	!	!	!	!LO:TX:t=P:problem:kreska pseudotaktowa	!
!	!	!	!	!	!LO:TX:a:t=P:problem:# above	!
.	.	.	.	.	2f#X\	-ter-
!LO:LB:g=original	!	!	!	!	!	!
2GG/	-vit	1G/	.	.	2g\	-num
4.G\	prae-	.	.	.	4.d\	prae-
!LO:TX:t=P:problem:kreska pseudotaktowa	!	!	!	!	!LO:TX:t=P:problem:kreska pseudotaktowa	!
8F\	-pa-	.	.	.	8e\	-pa-
*	*	*Xlig	*	*	*	*
=16-	=16-	=16-	=16-	=16-	=16-	=16-
4.E\	-ra-	0G/	-num	0ryy	4f\	-ra-
.	.	.	.	.	4e\	-vit
16D/LL	.	.	.	.	.	.
16C/JJ	.	.	.	.	.	.
!LO:TX:t=P:problem:kreska pseudotaktowa	!	!	!	!	!	!
2BB/	.	.	.	.	4.g\	in
!	!	!	!	!	!LO:TX:t=P:problem:kreska pseudotaktowa	!
.	.	.	.	.	8f\	ae-
2C/	-vit	.	.	.	2e\	-ter-
!	!	!	!	!	!LO:TX:t=P:problem:kreska pseudotaktowa	!
4.G\	prae-	.	.	.	2d\	-num
!LO:TX:t=P:problem:kreska pseudotaktowa	!	!	!	!	!	!
8F\	-pa-	.	.	.	.	.
=17-	=17-	=17-	=17-	=17-	=17-	=17-
*	*	*	*	*	*	*ij
4E\	-ra-	0G/	in	0ryy	4.g\	prae-
4D/	-vit	.	.	.	.	.
.	.	.	.	.	8f\	-pa-
4C/	in	.	.	.	4e\	-ra-
!LO:TX:t=P:problem:kreska pseudotaktowa	!	!	!	!	!LO:TX:t=P:problem:kreska pseudotaktowa	!
4BB/	ae-	.	.	.	4d\	-vit
!LO:TX:t=P:problem:kreska pseudotaktowa	!	!	!	!	!	!
1C/	-ter-	.	.	.	4e\	in
.	.	.	.	.	4e\	ae-
.	.	.	.	.	2e\	-ter-
=18-	=18-	=18-	=18-	=18-	=18-	=18-
!	!	!	!	!	!LO:SIC:v:t=custos g	!
2GG/	-num	00.G/;	aeternum.	0ryy	1d\	-num
*	*ij	*	*	*	*	*
4.G\	prae-	.	.	.	.	.
!LO:TX:t=P:problem:kreska pseudotaktowa	!	!	!	!	!	!
8F\	-pa-	.	.	.	.	.
!	!	!	!	!	!LO:LB:g=original	!
4E\	-ra-	.	.	.	4.g\	prae-
4D/	-vit	.	.	.	.	.
.	.	.	.	.	8f\	-pa-
4C/	in	.	.	.	4e\	-ra-
!LO:TX:t=P:problem:kreska pseudotaktowa	!	!	!	!	!LO:TX:t=P:problem:kreska pseudotaktowa	!
4BB/	ae-	.	.	.	4d\	-vit
=19-	=19-	=19-	=19-	=19-	=19-	=19-
1C/	-ter-	.	.	00ryy	4e\	in
.	.	.	.	.	4e\	ae-
.	.	.	.	.	2e\	-ter-
!LO:SIC:o:v=podwójna ozdobna brevis	!	!LO:TX:t=Eiusde(m) Authoris \nD. S. Joannis Krener S.R.M \nMusic(i) 1669 1. Xbris fact(um)	!	!	!	!
0.GG/	-num	.	.	.	0.d\;<	-num
==	==	==	==	==	==	==
*-	*-	*-	*-	*-	*-	*-
!!!system-decoration: [(s1,s2,s3,s4)]
!!!RDF**kern: > = above
!!!RDF**kern: < = below
!!!EED: Leszek Kubiak
!!!EST: 2021-03-19
!!!ENC:Berenika Jozajtis
!!!END:2021-03-03
